src/lib/assets/thumbs_up_filled.svg

<svg width="59" height="59" viewBox="0 0 59 59" fill="none" xmlns="http://www.w3.org/2000/svg">
<path d="M14.75 51.5213V25.7088C14.75 23.6726 13.0987 22.125 11.0625 22.125H3.6875C1.65131 22.125 0 23.7763 0 25.7088V51.4176C0 53.4538 1.65131 55.0014 3.6875 55.0014H11.0625C13.1021 55.2088 14.75 53.6531 14.75 51.5213ZM59 25.824C59 22.7703 56.5248 20.2951 53.4688 20.2951H36.5869C39.2108 15.9265 40.5648 10.9749 40.5648 9.23027C40.5625 6.51305 38.4307 3.6875 34.8584 3.6875C27.5837 3.6875 31.8208 12.4626 22.39 20.0047L20.5117 21.5027C19.152 22.5975 18.4605 24.1992 18.449 25.8125C18.4463 25.8152 18.449 25.8125 18.449 25.8125L18.4375 44.25C18.4375 45.99 19.2572 47.6298 20.65 48.6738L24.5841 51.6227C27.7715 54.0219 31.6549 55.3125 35.642 55.3125H42.4062C45.4623 55.3125 47.9375 52.8384 47.9375 49.7836C47.9375 49.3647 47.8821 48.9604 47.7939 48.5678C50.0117 47.8453 51.625 45.7941 51.625 43.3281C51.625 42.274 51.3142 41.2988 50.8023 40.4611C53.365 39.9863 55.3125 37.7393 55.3125 35.0428C55.3125 33.6023 54.7487 32.3025 53.8467 31.3184C56.7184 31.1248 59 28.751 59 25.824Z" fill="#60A0DC"/>
</svg>

<svg xmlns="http://www.w3.org/2000/svg" width="59" height="59" fill="none"><path fill="#60A0DC" d="M14.75 51.521V25.71c0-2.036-1.651-3.584-3.688-3.584H3.689C1.65 22.125 0 23.776 0 25.709v25.709C0 53.454 1.651 55 3.688 55h7.374c2.04.208 3.688-1.348 3.688-3.48ZM59 25.824a5.53 5.53 0 0 0-5.531-5.529H36.587c2.624-4.369 3.978-9.32 3.978-11.065-.002-2.717-2.134-5.543-5.707-5.543-7.274 0-3.037 8.776-12.468 16.318l-1.878 1.498c-1.36 1.095-2.052 2.696-2.063 4.31-.003.002 0 0 0 0l-.012 18.437c0 1.74.82 3.38 2.213 4.424l3.934 2.949a18.387 18.387 0 0 0 11.058 3.69h6.764a5.528 5.528 0 0 0 5.532-5.53c0-.418-.056-.823-.144-1.215 2.218-.723 3.831-2.774 3.831-5.24 0-1.054-.31-2.03-.823-2.867 2.563-.475 4.51-2.722 4.51-5.418 0-1.44-.563-2.74-1.465-3.725C56.718 31.125 59 28.751 59 25.824Z"/></svg>
